packages/astro-components-stencil/src/icons/show-chart.svg

<svg width="24" height="24" viewBox="0 0 24 24" fill="none" xmlns="http://www.w3.org/2000/svg">
<path d="M4.19997 17.78L9.49997 12.48L12.75 15.73C13.16 16.14 13.82 16.12 14.2 15.69L21.37 7.62003C21.72 7.23003 21.7 6.63003 21.33 6.25003C20.93 5.85003 20.26 5.86003 19.88 6.29003L13.49 13.47L10.2 10.18C9.80997 9.79003 9.17997 9.79003 8.78997 10.18L2.69997 16.28C2.30997 16.67 2.30997 17.3 2.69997 17.69L2.78997 17.78C3.17997 18.17 3.81997 18.17 4.19997 17.78Z" fill="black"/>
</svg>

<svg xmlns="http://www.w3.org/2000/svg" viewBox="0 0 24 24"><g xmlns="http://www.w3.org/2000/svg" id="show-chart" fill-rule="nonzero">
            <path d="M4.2 17.78l5.3-5.3 3.25 3.25c.41.41 1.07.39 1.45-.04l7.17-8.07c.35-.39.33-.99-.04-1.37a1 1 0 00-1.45.04l-6.39 7.18-3.29-3.29a.996.996 0 00-1.41 0l-6.09 6.1a.996.996 0 000 1.41l.09.09c.39.39 1.03.39 1.41 0z"/>
        </g></svg>
